X:1
T:When The Heart Of A Man..?aka. JC.238
L:1/8
Q:3/8=60
M:6/8
I:linebreak $
K:D
V:1 treble 
V:1
 d/e/ | fdA AGF | Eee ede | fdB AFA | Bdd d2 :: f/e/ | dfa dfa | dfa afd |$ dfa dfa | bee e>fe | %10
 dfa dfa | dfa a2 g | fdB AGA | Bdd d2 :| %14
